X:1
T:Title
%%score { 1 | 2 }
L:1/8
Q:1/4=100
M:3/4
K:G
V:1 treble nm="Grand Piano"
V:2 bass 
V:1
 [B,DG]>[A,DF] [CFA]2 [F,D]2 | [Ac]>[FA] B2 G2 | B>G d3 [Bd] | [Ac]>[GB] [FA]4 | %4
w: J.~M.~Whyte * * *||||
 [DF]>[DG] [FA]2 [Fc]2 | [GB]>[Ac] [Bd]2 [DG]2 | [GB]>[FA] [Ac]2 D2 | F>A G4 | d>d [Ac]2 [FA]2 | %9
w: |||||
 [Ac]>[FA] B2 G2 | B>G d3 [Bd] | [Ac]>[GB] [FA]4 | G>F A2 D2 | [Ac]>[FA] [GB]2 [DG]2 | %14
w: |||||
 [GB]>[FA] [Ac]2 D2 | F>A G4 |] %16
w: ||
V:2
 D,>D, D,2 D,2 | [D,D]>[D,D][K:treble] [G,DG]2 [G,B,D]2 | [G,B,G]>[G,B,] [G,B,G]3[K:bass] [G,D] | %3
 [D,D]>[D,D] [D,D]4 | [D,A,]>[D,B,] [D,C]2 [D,D]2 | [G,D]>[G,C] [G,B,]2 [G,B,]2 | %6
 [D,D]>[D,D] [D,D]2 [D,B,]2 | [D,A,D]>[D,CD][K:treble] [G,B,D]4 | %8
 [G,B,G]>[G,B,G][K:bass] [D,D]2 [D,D]2 | [D,D]>[D,D][K:treble] [G,DG]2 [G,B,D]2 | %10
 [G,B,G]>[G,B,] [G,B,G]3[K:bass] [G,D] | [D,D]>[D,D] [D,D]4 | [D,B,D]>[D,A,D] [D,CD]2 [D,F,]2 | %13
 [D,D]>[D,D] [G,D]2 [G,B,]2 | [D,D]>[D,D] [D,D]2 [D,B,]2 | [D,A,D]>[D,CD] [G,B,D]4 |] %16

